X:1
T:The Merry Peasant
T:For Cello & Piano
T:Robert Schumann
T:8 June 1810 – 29 July 1856
T:In "G major"
%%score 1 { ( 2 4 ) | 3 }
L:1/8
Q:1/4=110
M:4/4
K:G
V:1 bass nm="Violoncello" snm="Vlc."
V:2 treble nm="Piano" snm="Piano"
V:4 treble 
V:3 bass 
V:1
!mf!"^\n" uD, | vG,3 uB, vD3 uG, | vCuEGE vD3 uB, | (vCA,)uD,C (uB,G,)vD,B, | %4
 vF,2 uE,2 vD,2 z uD, | vG,3 uB, vD3 uG, | vCuEGE vD3 uB, | (vCA,)uD,C (uB,G,)vD,B, | %8
 vF,2 uE,2 vD,2 z uD, | vC3 uB, vA,3 uD, |!f! .vC.B,.A,.G, vA,3 uD, | vG,3 uB, vD3 uG, | %12
 vCuEGE vD3 uB, | (vCA,)uD,C (uB,G,)vD,B, | vA,2 uF,2 vG,2 z uD, | vC3 uB, vA,3 uD, | %16
 .vC.B,.A,.G, vA,3 uD, | vG,3 uB, vD3 uG, | vCEGE vD3 uB, | (vCA,)uD,C (uB,G,)vD,B, | %20
 vA,2!mf! uF,2 vG,2 z2 |] %21
V:2
 z | z [DGB][DGB] z z [GBd][GBd] z | z [Gce][ce] z z [GBd][GBd] z | z [Fc] [Fc]2 z [DGB] [DGB]2 | %4
 z [DA] z [GA^c] z [FAd] [FAd]2 | z [DGB][DGB] z z [GBd][GBd] z | z [Gce][ce] z z [GBd][GBd] z | %7
 z [Fc] [Fc]2 z [DGB] [DGB]2 | z [DA] z [GA^c] z [FAd] [FAd]D | c3 B A3 D | .c.B.A.G A3 D | %11
 G3 B d3 G | cege d3 z | z [Fc] [Fc]2 z [DGB] [DGB][DGB] | z [EA] z [CD] z [B,DG] [B,DG]D | %15
 c3 B A3 D |!f! .c.B.A.G A3 D | G3 B d3 G | cege d3 z | z [Fc] [Fc]2 z [DGB] [DGB][DGB] | %20
 z [EA] z [CD] z [B,DG][B,DG] z |] %21
V:3
 D, | G,3 B, G,3 B, | A,B,CA, B,3 B, | A,2 D,2 B,2 D,2 | F,2 E,2 D,2 z D, | G,3 B, G,3 B, | %6
 A,B,CA, B,3 B, | A,2 D,2 B,2 D,2 | F,2 E,2 D,2 z D, | A,3 G, F,3 D, | .A,.G,.F,.E, F,3 D, | %11
 G,3 B, G,3 B, | A,B,CA, B,3 B, | A,2 D,2 B,2 D,2 | C,2 D,2 G,,2 z D, | A,3 G, F,3 D, | %16
 .A,.G,.F,.E, F,3 D, | G,3 B, G,3 B, | A,B,CA, B,3 B, | A,2 D,2 B,2 D,2 | C,2 D,2 G,,2"_Fine" z2 |] %21
V:4
 x | x8 | x8 | x8 | x8 | x8 | x8 | x8 | x8 | z [DF][DF] z z [CD][CD] z | x .D .D.^C z [DF][DF] x | %11
 z [B,D][B,D] z z [GB][GB] z | z [Gc] z [Gc] z [GB][GB] z | x8 | x8 | z [DF][DF] z z [CD][CD] z | %16
 x .D .D.^C z [DF][DF] x | z [B,D][B,D] z z [GB][GB] z | z [Gc] z [Gc] z [GB][GB] z | x8 | x8 |] %21

